assets/File cabinet/Flat/file_cabinet_flat.svg

<svg width="32" height="32" viewBox="0 0 32 32" fill="none" xmlns="http://www.w3.org/2000/svg">
<path d="M22.39 30H9.61C8.17 30 7 28.8271 7 27.3835V4.61654C7 3.17293 8.17 2 9.61 2H22.39C23.83 2 25 3.17293 25 4.61654V27.3835C25 28.8271 23.83 30 22.39 30Z" fill="black"/>
<path d="M9.74454 15.5H22.2653C23.2223 15.5 24.0099 14.7056 23.9999 13.7401V4.75986C23.9999 3.78439 23.2223 3 22.2554 3H9.74454C8.77757 3 8 3.78439 8 4.75986V13.7401C8 14.7156 8.77757 15.5 9.74454 15.5Z" fill="#433B6B"/>
<path d="M9.74454 29H22.2653C23.2223 29 24.0099 28.2056 23.9999 27.2401V18.2599C23.9999 17.2844 23.2223 16.5 22.2554 16.5H9.74454C8.77757 16.5 8 17.2844 8 18.2599V27.2401C8 28.2156 8.77757 29 9.74454 29Z" fill="#433B6B"/>
<path d="M13.53 8.1H18.43C18.87 8.1 19.22 7.75 19.22 7.31V5.73C19.22 5.29 18.86 4.94 18.43 4.94H13.53C13.09 4.94 12.74 5.3 12.74 5.73V7.31C12.74 7.75 13.1 8.1 13.53 8.1Z" fill="#F4F4F4"/>
<path d="M13.53 21.52H18.43C18.87 21.52 19.22 21.17 19.22 20.73V19.15C19.22 18.71 18.86 18.36 18.43 18.36H13.53C13.09 18.36 12.74 18.72 12.74 19.15V20.73C12.74 21.17 13.1 21.52 13.53 21.52Z" fill="#F4F4F4"/>
<path d="M13.53 4.5672C12.881 4.5672 12.3672 5.09718 12.3672 5.73V7.31C12.3672 7.95895 12.8972 8.4728 13.53 8.4728H18.43C19.0759 8.4728 19.5928 7.95589 19.5928 7.31V5.73C19.5928 5.08104 19.0628 4.5672 18.43 4.5672H13.53ZM13.1128 5.73C13.1128 5.50282 13.2989 5.3128 13.53 5.3128H18.43C18.6572 5.3128 18.8472 5.49895 18.8472 5.73V7.31C18.8472 7.54411 18.6641 7.7272 18.43 7.7272H13.53C13.3028 7.7272 13.1128 7.54104 13.1128 7.31V5.73Z" fill="#8D65C5"/>
<path d="M13.11 10.18C12.6958 10.18 12.36 10.5158 12.36 10.93C12.36 11.3442 12.6958 11.68 13.11 11.68H18.83C19.2442 11.68 19.58 11.3442 19.58 10.93C19.58 10.5158 19.2442 10.18 18.83 10.18H13.11Z" fill="#8D65C5"/>
<path d="M12.3672 19.15C12.3672 18.5172 12.881 17.9872 13.53 17.9872H18.43C19.0628 17.9872 19.5928 18.501 19.5928 19.15V20.73C19.5928 21.3759 19.0759 21.8928 18.43 21.8928H13.53C12.8972 21.8928 12.3672 21.379 12.3672 20.73V19.15ZM13.53 18.7328C13.2989 18.7328 13.1128 18.9228 13.1128 19.15V20.73C13.1128 20.961 13.3028 21.1472 13.53 21.1472H18.43C18.6641 21.1472 18.8472 20.9641 18.8472 20.73V19.15C18.8472 18.919 18.6572 18.7328 18.43 18.7328H13.53Z" fill="#8D65C5"/>
<path d="M13.11 23.6C12.6958 23.6 12.36 23.9358 12.36 24.35C12.36 24.7642 12.6958 25.1 13.11 25.1H18.83C19.2442 25.1 19.58 24.7642 19.58 24.35C19.58 23.9358 19.2442 23.6 18.83 23.6H13.11Z" fill="#8D65C5"/>
</svg>

<svg xmlns="http://www.w3.org/2000/svg" width="32" height="32" fill="none"><path fill="#000" d="M22.39 30H9.61A2.615 2.615 0 0 1 7 27.384V4.617A2.615 2.615 0 0 1 9.61 2h12.78C23.83 2 25 3.173 25 4.617v22.767A2.615 2.615 0 0 1 22.39 30Z"/><path fill="#433B6B" d="M9.745 15.5h12.52c.957 0 1.745-.794 1.735-1.76V4.76C24 3.784 23.222 3 22.255 3H9.745C8.778 3 8 3.784 8 4.76v8.98c0 .976.778 1.76 1.745 1.76ZM9.745 29h12.52c.957 0 1.745-.794 1.735-1.76v-8.98c0-.976-.778-1.76-1.745-1.76H9.745C8.778 16.5 8 17.284 8 18.26v8.98c0 .976.778 1.76 1.745 1.76Z"/><path fill="#F4F4F4" d="M13.53 8.1h4.9c.44 0 .79-.35.79-.79V5.73c0-.44-.36-.79-.79-.79h-4.9c-.44 0-.79.36-.79.79v1.58c0 .44.36.79.79.79ZM13.53 21.52h4.9c.44 0 .79-.35.79-.79v-1.58c0-.44-.36-.79-.79-.79h-4.9c-.44 0-.79.36-.79.79v1.58c0 .44.36.79.79.79Z"/><path fill="#8D65C5" d="M13.53 4.567c-.649 0-1.163.53-1.163 1.163v1.58c0 .649.53 1.163 1.163 1.163h4.9c.646 0 1.163-.517 1.163-1.163V5.73c0-.649-.53-1.163-1.163-1.163h-4.9Zm-.417 1.163c0-.227.186-.417.417-.417h4.9c.227 0 .417.186.417.417v1.58a.413.413 0 0 1-.417.417h-4.9a.419.419 0 0 1-.417-.417V5.73ZM13.11 10.18a.75.75 0 0 0 0 1.5h5.72a.75.75 0 0 0 0-1.5h-5.72ZM12.367 19.15c0-.633.514-1.163 1.163-1.163h4.9c.633 0 1.163.514 1.163 1.163v1.58c0 .646-.517 1.163-1.163 1.163h-4.9a1.164 1.164 0 0 1-1.163-1.163v-1.58Zm1.163-.417a.419.419 0 0 0-.417.417v1.58c0 .231.19.417.417.417h4.9a.413.413 0 0 0 .417-.417v-1.58a.419.419 0 0 0-.417-.417h-4.9ZM13.11 23.6a.75.75 0 0 0 0 1.5h5.72a.75.75 0 0 0 0-1.5h-5.72Z"/></svg>
